static/img/oss_logo.svg

<svg width="1191" height="324" viewBox="0 0 1191 324" fill="none" xmlns="http://www.w3.org/2000/svg">
<g clip-path="url(#clip0)">
<path d="M136.786 70.0841L263.675 196.973L136.786 323.862L9.89658 196.973L136.786 70.0841Z" fill="#D31D2C"/>
<path d="M136.786 62.1806L263.675 189.07L136.786 315.959L9.89658 189.07L136.786 62.1806Z" fill="white"/>
<path d="M136.786 97.5963L245.967 206.777L136.786 315.959L27.6045 206.777L136.786 97.5963Z" fill="#FF5C5C"/>
<path d="M136.786 146.808L221.361 231.383L136.786 315.959L52.2102 231.383L136.786 146.808Z" fill="#FF3A3A"/>
<path d="M43.1303 129.992C40.7208 132.267 40.6116 136.064 42.8864 138.474C45.1612 140.883 48.9586 140.992 51.3681 138.718L43.1303 129.992ZM136.681 49.9249L140.794 45.5572C138.482 43.3789 134.872 43.3811 132.562 45.562L136.681 49.9249ZM222.208 138.722C224.62 140.994 228.418 140.881 230.69 138.468C232.962 136.056 232.848 132.259 230.436 129.987L222.208 138.722ZM51.3681 138.718L140.799 54.2878L132.562 45.562L43.1303 129.992L51.3681 138.718ZM132.567 54.2926L222.208 138.722L230.436 129.987L140.794 45.5572L132.567 54.2926Z" fill="#D31D2C"/>
<path d="M43.1303 124.486C40.7208 126.761 40.6116 130.558 42.8864 132.968C45.1612 135.377 48.9586 135.486 51.3681 133.212L43.1303 124.486ZM136.681 44.4189L140.794 40.0512C138.482 37.873 134.872 37.8751 132.562 40.056L136.681 44.4189ZM222.208 133.216C224.62 135.488 228.418 135.375 230.69 132.962C232.962 130.55 232.848 126.753 230.436 124.481L222.208 133.216ZM51.3681 133.212L140.799 48.7818L132.562 40.056L43.1303 124.486L51.3681 133.212ZM132.567 48.7866L222.208 133.216L230.436 124.481L140.794 40.0512L132.567 48.7866Z" fill="white"/>
<g filter="url(#filter0_dddddd)">
<path d="M153.472 51.0088C219.146 30.9939 231.7 13.3582 196.661 15.3048C183.327 16.0456 57.2381 42.5272 57.2381 61.1921C57.2381 64.3412 71.3798 76.0274 153.472 51.0088Z" stroke="#D31D2C" stroke-width="10"/>
</g>
<path d="M154.064 45.9892C219.738 25.9743 232.292 8.33859 197.253 10.2852C183.919 11.026 57.83 37.5076 57.83 56.1726C57.83 59.3216 71.9717 71.0078 154.064 45.9892Z" stroke="white" stroke-width="10"/>
<path d="M68.6799 77.6493C64.1449 78.8412 62.6334 71.5447 62.4445 67.7474C81.1606 70.2387 91.7226 69.9209 110.679 66.4136C104.829 70.4743 96.4215 94.3517 87.6937 94.832C78.9659 95.3124 77.5782 76.5102 75.1619 75.5457C72.7455 74.5812 74.3487 76.1593 68.6799 77.6493Z" fill="#D31D2C"/>
<path d="M441.896 229.107C441.896 194.845 420.623 175.311 392.856 175.311C364.935 175.311 343.816 194.845 343.816 229.107C343.816 263.215 364.935 282.902 392.856 282.902C420.623 282.902 441.896 263.368 441.896 229.107ZM419.447 229.107C419.447 251.3 408.913 263.317 392.856 263.317C376.748 263.317 366.265 251.3 366.265 229.107C366.265 206.913 376.748 194.896 392.856 194.896C408.913 194.896 419.447 206.913 419.447 229.107ZM452.128 310.925H473.913V268.891H474.577C477.594 275.436 484.191 282.749 496.873 282.749C514.771 282.749 528.731 268.584 528.731 242.3C528.731 215.3 514.157 201.902 496.924 201.902C483.782 201.902 477.492 209.726 474.577 216.118H473.606V202.925H452.128V310.925ZM473.452 242.197C473.452 228.186 479.384 219.237 489.969 219.237C500.759 219.237 506.486 228.595 506.486 242.197C506.486 255.902 500.657 265.413 489.969 265.413C479.486 265.413 473.452 256.209 473.452 242.197ZM573.289 283.004C592.721 283.004 605.812 273.544 608.88 258.97L588.732 257.641C586.533 263.624 580.908 266.743 573.647 266.743C562.755 266.743 555.851 259.533 555.851 247.822V247.771H609.34V241.788C609.34 215.095 593.181 201.902 572.42 201.902C549.306 201.902 534.323 218.317 534.323 242.555C534.323 267.459 549.101 283.004 573.289 283.004ZM555.851 234.271C556.312 225.322 563.113 218.163 572.778 218.163C582.238 218.163 588.783 224.913 588.834 234.271H555.851ZM639.58 236.061C639.631 225.936 645.665 220.004 654.461 220.004C663.205 220.004 668.472 225.732 668.421 235.345V281.47H690.205V231.459C690.205 213.152 679.466 201.902 663.103 201.902C651.444 201.902 643.006 207.629 639.478 216.783H638.557V202.925H617.796V281.47H639.58V236.061ZM786.404 206.862H807.625C807.319 188.197 791.978 175.311 768.66 175.311C745.699 175.311 728.875 187.993 728.978 207.016C728.927 222.459 739.819 231.305 757.512 235.55L768.915 238.413C780.319 241.175 786.66 244.447 786.711 251.504C786.66 259.175 779.398 264.391 768.148 264.391C756.642 264.391 748.358 259.072 747.642 248.59H726.216C726.779 271.243 742.989 282.953 768.404 282.953C793.972 282.953 809.006 270.732 809.057 251.555C809.006 234.118 795.864 224.862 777.66 220.771L768.25 218.521C759.148 216.425 751.529 213.05 751.682 205.533C751.682 198.783 757.665 193.822 768.506 193.822C779.091 193.822 785.586 198.629 786.404 206.862ZM853.27 283.004C877.1 283.004 891.929 266.692 891.929 242.504C891.929 218.163 877.1 201.902 853.27 201.902C829.441 201.902 814.611 218.163 814.611 242.504C814.611 266.692 829.441 283.004 853.27 283.004ZM853.373 266.129C842.378 266.129 836.753 256.055 836.753 242.351C836.753 228.646 842.378 218.521 853.373 218.521C864.162 218.521 869.787 228.646 869.787 242.351C869.787 256.055 864.162 266.129 853.373 266.129ZM950.703 248.027C950.755 258.561 943.544 264.084 935.72 264.084C927.488 264.084 922.169 258.305 922.118 249.05V202.925H900.334V252.936C900.385 271.294 911.124 282.493 926.925 282.493C938.738 282.493 947.226 276.408 950.755 267.203H951.573V281.47H972.488V202.925H950.703V248.027ZM984.152 281.47H1005.94V237.033C1005.94 227.368 1012.99 220.72 1022.61 220.72C1025.62 220.72 1029.77 221.232 1031.81 221.896V202.567C1029.87 202.107 1027.16 201.8 1024.96 201.8C1016.16 201.8 1008.95 206.913 1006.09 216.629H1005.27V202.925H984.152V281.47ZM1069.15 283.004C1090.06 283.004 1103.2 270.732 1104.23 252.68H1083.67C1082.39 261.067 1076.87 265.771 1069.4 265.771C1059.23 265.771 1052.63 257.232 1052.63 242.197C1052.63 227.368 1059.28 218.879 1069.4 218.879C1077.38 218.879 1082.49 224.146 1083.67 231.97H1104.23C1103.31 213.817 1089.55 201.902 1069.04 201.902C1045.21 201.902 1030.49 218.419 1030.49 242.504C1030.49 266.385 1044.96 283.004 1069.15 283.004ZM1148.21 283.004C1167.64 283.004 1180.73 273.544 1183.8 258.97L1163.65 257.641C1161.45 263.624 1155.83 266.743 1148.57 266.743C1137.67 266.743 1130.77 259.533 1130.77 247.822V247.771H1184.26V241.788C1184.26 215.095 1168.1 201.902 1147.34 201.902C1124.23 201.902 1109.24 218.317 1109.24 242.555C1109.24 267.459 1124.02 283.004 1148.21 283.004ZM1130.77 234.271C1131.23 225.322 1138.03 218.163 1147.7 218.163C1157.16 218.163 1163.7 224.913 1163.75 234.271H1130.77Z" fill="white"/>
<path d="M354.864 70.4476L347 148.525H363.331L367.084 111.256C368.72 110.215 372.46 108.549 376.441 108.549C380.83 108.549 381.894 111.152 381.506 115.004L378.13 148.525H394.461L398.088 112.505C399.095 102.511 395.869 95.0158 381.988 95.0158C376.375 95.0158 372.145 96.4733 368.384 98.3471L371.194 70.4476H354.864Z" fill="white"/>
<path d="M445.905 128.002C448.875 111.658 449.022 95.0016 427.197 95.0016C411.39 95.0016 402.453 103.746 400.568 122.485C398.682 141.223 405.96 149.968 422.788 149.968C428.907 149.968 436.161 148.823 442.327 146.324L443.637 133.311C439.777 135.185 433.908 136.747 426.26 136.747C418.305 136.747 415.037 134.769 416.126 128.002H445.905ZM426.144 107.494C432.365 107.494 433.128 112.074 431.634 117.8H417.152C417.812 111.242 420.637 107.494 426.144 107.494Z" fill="white"/>
<path d="M453.903 96.4591L448.665 148.511H464.981L468.731 111.242C470.365 110.201 474.102 108.535 478.079 108.535C482.463 108.535 483.527 111.138 483.14 114.989L479.767 148.511H496.082L499.706 112.491C500.712 102.497 497.489 95.0016 483.621 95.0016C478.013 95.0016 471.421 96.6673 465.355 100.207L463.692 96.4591H453.903Z" fill="white"/>
<path d="M535.194 135.946C534.356 136.154 532.272 136.571 530.128 136.571C524.921 136.571 523.62 134.28 524.029 130.22L526.033 110.337H538.693L540.088 96.4912H527.428L528.906 81.8128L512.12 86.2892L511.04 97.0117L502.539 99.302L501.427 110.337H509.697L507.558 131.574C506.32 143.858 511.112 150 525.406 150C527.652 150 531.574 149.583 533.883 148.959L535.194 135.946Z" fill="white"/>
<path d="M570.201 134.248C570.201 134.248 566.82 136.434 562.741 136.434C555.195 136.434 554.067 131.438 554.968 122.485C555.858 113.636 558.003 108.535 565.549 108.535C569.627 108.535 572.568 110.721 572.568 110.721L570.201 134.248ZM590.319 96.4591H580.53L577.357 100.623C574.103 97.5001 569.562 95.0016 561.404 95.0016C548.148 95.0016 540.784 103.33 538.856 122.485C536.929 141.64 542.617 149.968 555.873 149.968C564.031 149.968 569.108 150.176 572.991 147.053L575.292 148.51H585.081L590.319 96.4591Z" fill="white"/>
<path d="M591.543 148.555H607.825L613.084 96.5042H596.802L591.543 148.555ZM596.792 81.4093C596.224 87.0309 599.991 91.2991 605.521 91.2991C610.948 91.2991 615.68 87.0309 616.248 81.4093C616.806 75.8919 612.947 71.5196 607.519 71.5196C601.99 71.5196 597.349 75.8919 596.792 81.4093Z" fill="white"/>
<path d="M645.876 149.992C669.95 149.992 678.053 133.335 680.453 109.496C682.853 85.6564 678.103 69 654.029 69C629.955 69 621.852 85.6564 619.452 109.496C617.053 133.335 621.803 149.992 645.876 149.992ZM652.51 84.0949C662.608 84.0949 665.762 91.2779 663.928 109.496C662.094 127.714 657.495 134.897 647.396 134.897C637.297 134.897 634.144 127.714 635.978 109.496C637.811 91.2779 642.411 84.0949 652.51 84.0949Z" fill="white"/>
<path d="M713.548 101.064C705.704 99.9184 702.923 98.1487 703.489 92.5272C703.992 87.5302 708.958 84.8236 717.428 84.8236C725.183 84.8236 733.442 86.9056 737.416 88.9877L739.041 72.8518C735.669 70.8738 728.205 69 717.797 69C697.593 69 688.18 78.3692 686.754 92.5272C685.213 107.83 692.075 113.66 711.201 116.263C718.851 117.304 721.203 119.282 720.605 125.215C720.071 130.525 716.337 134.168 704.806 134.168C694.704 134.168 686.531 130.212 683.169 128.13L681.45 145.203C686.625 148.534 696.58 149.992 704.845 149.992C722.906 149.992 735.547 143.017 737.497 123.654C739.174 106.997 730.245 103.458 713.548 101.064Z" fill="white"/>
</g>
<defs>
<filter id="filter0_dddddd" x="-27.7619" y="10.1575" width="328.503" height="241.513" filterUnits="userSpaceOnUse" color-interpolation-filters="sRGB">
<feFlood flood-opacity="0" result="BackgroundImageFix"/>
<feColorMatrix in="SourceAlpha" type="matrix" values="0 0 0 0 0 0 0 0 0 0 0 0 0 0 0 0 0 0 127 0"/>
<feOffset dy="2.76726"/>
<feGaussianBlur stdDeviation="1.1069"/>
<feColorMatrix type="matrix" values="0 0 0 0 0 0 0 0 0 0 0 0 0 0 0 0 0 0 0.0272236 0"/>
<feBlend mode="normal" in2="BackgroundImageFix" result="effect1_dropShadow"/>
<feColorMatrix in="SourceAlpha" type="matrix" values="0 0 0 0 0 0 0 0 0 0 0 0 0 0 0 0 0 0 127 0"/>
<feOffset dy="6.6501"/>
<feGaussianBlur stdDeviation="2.66004"/>
<feColorMatrix type="matrix" values="0 0 0 0 0 0 0 0 0 0 0 0 0 0 0 0 0 0 0.0395987 0"/>
<feBlend mode="normal" in2="effect1_dropShadow" result="effect2_dropShadow"/>
<feColorMatrix in="SourceAlpha" type="matrix" values="0 0 0 0 0 0 0 0 0 0 0 0 0 0 0 0 0 0 127 0"/>
<feOffset dy="12.5216"/>
<feGaussianBlur stdDeviation="5.00862"/>
<feColorMatrix type="matrix" values="0 0 0 0 0 0 0 0 0 0 0 0 0 0 0 0 0 0 0.0493241 0"/>
<feBlend mode="normal" in2="effect2_dropShadow" result="effect3_dropShadow"/>
<feColorMatrix in="SourceAlpha" type="matrix" values="0 0 0 0 0 0 0 0 0 0 0 0 0 0 0 0 0 0 127 0"/>
<feOffset dy="22.3363"/>
<feGaussianBlur stdDeviation="8.93452"/>
<feColorMatrix type="matrix" values="0 0 0 0 0 0 0 0 0 0 0 0 0 0 0 0 0 0 0.0588507 0"/>
<feBlend mode="normal" in2="effect3_dropShadow" result="effect4_dropShadow"/>
<feColorMatrix in="SourceAlpha" type="matrix" values="0 0 0 0 0 0 0 0 0 0 0 0 0 0 0 0 0 0 127 0"/>
<feOffset dy="41.7776"/>
<feGaussianBlur stdDeviation="16.711"/>
<feColorMatrix type="matrix" values="0 0 0 0 0 0 0 0 0 0 0 0 0 0 0 0 0 0 0.0703296 0"/>
<feBlend mode="normal" in2="effect4_dropShadow" result="effect5_dropShadow"/>
<feColorMatrix in="SourceAlpha" type="matrix" values="0 0 0 0 0 0 0 0 0 0 0 0 0 0 0 0 0 0 127 0"/>
<feOffset dy="100"/>
<feGaussianBlur stdDeviation="40"/>
<feColorMatrix type="matrix" values="0 0 0 0 0 0 0 0 0 0 0 0 0 0 0 0 0 0 0.09 0"/>
<feBlend mode="normal" in2="effect5_dropShadow" result="effect6_dropShadow"/>
<feBlend mode="normal" in="SourceGraphic" in2="effect6_dropShadow" result="shape"/>
</filter>
<clipPath id="clip0">
<rect width="1191" height="324" fill="white"/>
</clipPath>
</defs>
</svg>

<svg width="1191" height="324" fill="none" xmlns="http://www.w3.org/2000/svg"><g clip-path="url(#a)"><path d="m136.786 70.084 126.889 126.889-126.889 126.889L9.896 196.973l126.89-126.889Z" fill="#D31D2C"/><path d="m136.786 62.18 126.889 126.89-126.889 126.889L9.896 189.07l126.89-126.89Z" fill="#fff"/><path d="m136.786 97.596 109.181 109.181-109.181 109.182L27.605 206.777l109.181-109.18Z" fill="#FF5C5C"/><path d="m136.786 146.808 84.575 84.575-84.575 84.576-84.576-84.576 84.576-84.575Z" fill="#FF3A3A"/><path d="M43.13 129.992a6 6 0 0 0 8.238 8.726l-8.238-8.726Zm93.551-80.067 4.113-4.368a6 6 0 0 0-8.232.005l4.119 4.363Zm85.527 88.797a6 6 0 1 0 8.228-8.735l-8.228 8.735Zm-170.84-.004 89.431-84.43-8.237-8.726-89.432 84.43 8.238 8.726Zm81.199-84.425 89.641 84.429 8.228-8.735-89.642-84.43-8.227 8.736Z" fill="#D31D2C"/><path d="M43.13 124.486a6 6 0 0 0 8.238 8.726l-8.238-8.726Zm93.551-80.067 4.113-4.368a6 6 0 0 0-8.232.005l4.119 4.363Zm85.527 88.797a6 6 0 1 0 8.228-8.735l-8.228 8.735Zm-170.84-.004 89.431-84.43-8.237-8.726-89.432 84.43 8.238 8.726Zm81.199-84.425 89.641 84.429 8.228-8.735-89.642-84.43-8.227 8.736Z" fill="#fff"/><g filter="url(#b)"><path d="M153.472 51.009c65.674-20.015 78.228-37.65 43.189-35.704-13.334.74-139.423 27.222-139.423 45.887 0 3.15 14.142 14.835 96.234-10.183Z" stroke="#D31D2C" stroke-width="10"/></g><path d="M154.064 45.99c65.674-20.016 78.228-37.651 43.189-35.705-13.334.741-139.423 27.223-139.423 45.888 0 3.149 14.142 14.835 96.234-10.184Z" stroke="#fff" stroke-width="10"/><path d="M68.68 77.65c-4.535 1.191-6.047-6.105-6.236-9.903 18.717 2.492 29.279 2.174 48.235-1.333-5.85 4.06-14.258 27.938-22.985 28.418-8.728.48-10.116-18.322-12.532-19.286-2.416-.965-.813.613-6.482 2.103Z" fill="#D31D2C"/><path d="M441.896 229.107c0-34.262-21.273-53.796-49.04-53.796-27.921 0-49.04 19.534-49.04 53.796 0 34.108 21.119 53.795 49.04 53.795 27.767 0 49.04-19.534 49.04-53.795Zm-22.449 0c0 22.193-10.534 34.21-26.591 34.21-16.108 0-26.591-12.017-26.591-34.21 0-22.194 10.483-34.211 26.591-34.211 16.057 0 26.591 12.017 26.591 34.211Zm32.681 81.818h21.785v-42.034h.664c3.017 6.545 9.614 13.858 22.296 13.858 17.898 0 31.858-14.165 31.858-40.449 0-27-14.574-40.398-31.807-40.398-13.142 0-19.432 7.824-22.347 14.216h-.971v-13.193h-21.478v108Zm21.324-68.728c0-14.011 5.932-22.96 16.517-22.96 10.79 0 16.517 9.358 16.517 22.96 0 13.705-5.829 23.216-16.517 23.216-10.483 0-16.517-9.204-16.517-23.216Zm99.837 40.807c19.432 0 32.523-9.46 35.591-24.034l-20.148-1.329c-2.199 5.983-7.824 9.102-15.085 9.102-10.892 0-17.796-7.21-17.796-18.921v-.051h53.489v-5.983c0-26.693-16.159-39.886-36.92-39.886-23.114 0-38.097 16.415-38.097 40.653 0 24.904 14.778 40.449 38.966 40.449Zm-17.438-48.733c.461-8.949 7.262-16.108 16.927-16.108 9.46 0 16.005 6.75 16.056 16.108h-32.983Zm83.729 1.79c.051-10.125 6.085-16.057 14.881-16.057 8.744 0 14.011 5.728 13.96 15.341v46.125h21.784v-50.011c0-18.307-10.739-29.557-27.102-29.557-11.659 0-20.097 5.727-23.625 14.881h-.921v-13.858h-20.761v78.545h21.784v-45.409Zm146.824-29.199h21.221c-.306-18.665-15.647-31.551-38.965-31.551-22.961 0-39.785 12.682-39.682 31.705-.051 15.443 10.841 24.289 28.534 28.534l11.403 2.863c11.404 2.762 17.745 6.034 17.796 13.091-.051 7.671-7.313 12.887-18.563 12.887-11.506 0-19.79-5.319-20.506-15.801h-21.426c.563 22.653 16.773 34.363 42.188 34.363 25.568 0 40.602-12.221 40.653-31.398-.051-17.437-13.193-26.693-31.397-30.784l-9.41-2.25c-9.102-2.096-16.721-5.471-16.568-12.988 0-6.75 5.983-11.711 16.824-11.711 10.585 0 17.08 4.807 17.898 13.04Zm66.866 76.142c23.83 0 38.659-16.312 38.659-40.5 0-24.341-14.829-40.602-38.659-40.602-23.829 0-38.659 16.261-38.659 40.602 0 24.188 14.83 40.5 38.659 40.5Zm.103-16.875c-10.995 0-16.62-10.074-16.62-23.778 0-13.705 5.625-23.83 16.62-23.83 10.789 0 16.414 10.125 16.414 23.83 0 13.704-5.625 23.778-16.414 23.778Zm97.33-18.102c.052 10.534-7.159 16.057-14.983 16.057-8.232 0-13.551-5.779-13.602-15.034v-46.125h-21.784v50.011c.051 18.358 10.79 29.557 26.591 29.557 11.813 0 20.301-6.085 23.83-15.29h.818v14.267h20.915v-78.545h-21.785v45.102Zm33.449 33.443h21.788v-44.437c0-9.665 7.05-16.313 16.67-16.313 3.01 0 7.16.512 9.2 1.176v-19.329c-1.94-.46-4.65-.767-6.85-.767-8.8 0-16.01 5.113-18.87 14.829h-.82v-13.704h-21.118v78.545Zm84.998 1.534c20.91 0 34.05-12.272 35.08-30.324h-20.56c-1.28 8.387-6.8 13.091-14.27 13.091-10.17 0-16.77-8.539-16.77-23.574 0-14.829 6.65-23.318 16.77-23.318 7.98 0 13.09 5.267 14.27 13.091h20.56c-.92-18.153-14.68-30.068-35.19-30.068-23.83 0-38.55 16.517-38.55 40.602 0 23.881 14.47 40.5 38.66 40.5Zm79.06 0c19.43 0 32.52-9.46 35.59-24.034l-20.15-1.329c-2.2 5.983-7.82 9.102-15.08 9.102-10.9 0-17.8-7.21-17.8-18.921v-.051h53.49v-5.983c0-26.693-16.16-39.886-36.92-39.886-23.11 0-38.1 16.415-38.1 40.653 0 24.904 14.78 40.449 38.97 40.449Zm-17.44-48.733c.46-8.949 7.26-16.108 16.93-16.108 9.46 0 16 6.75 16.05 16.108h-32.98ZM354.864 70.448 347 148.525h16.331l3.753-37.269c1.636-1.041 5.376-2.707 9.357-2.707 4.389 0 5.453 2.603 5.065 6.455l-3.376 33.521h16.331l3.627-36.02c1.007-9.994-2.219-17.49-16.1-17.49-5.613 0-9.843 1.458-13.604 3.332l2.81-27.9h-16.33ZM445.905 128.002c2.97-16.344 3.117-33-18.708-33-15.807 0-24.744 8.744-26.629 27.483-1.886 18.738 5.392 27.483 22.22 27.483 6.119 0 13.373-1.145 19.539-3.644l1.31-13.013c-3.86 1.874-9.729 3.436-17.377 3.436-7.955 0-11.223-1.978-10.134-8.745h29.779Zm-19.761-20.508c6.221 0 6.984 4.58 5.49 10.306h-14.482c.66-6.558 3.485-10.306 8.992-10.306ZM453.903 96.46l-5.238 52.051h16.316l3.75-37.269c1.634-1.041 5.371-2.707 9.348-2.707 4.384 0 5.448 2.603 5.061 6.454l-3.373 33.522h16.315l3.624-36.02c1.006-9.994-2.217-17.49-16.085-17.49-5.608 0-12.2 1.666-18.266 5.206l-1.663-3.748h-9.789ZM535.194 135.946c-.838.208-2.922.625-5.066.625-5.207 0-6.508-2.291-6.099-6.351l2.004-19.883h12.66l1.395-13.846h-12.66l1.478-14.678-16.786 4.476-1.08 10.723-8.501 2.29-1.112 11.035h8.27l-2.139 21.237C506.32 143.858 511.112 150 525.406 150c2.246 0 6.168-.417 8.477-1.041l1.311-13.013ZM570.201 134.248s-3.381 2.186-7.46 2.186c-7.546 0-8.674-4.996-7.773-13.949.89-8.849 3.035-13.95 10.581-13.95 4.078 0 7.019 2.186 7.019 2.186l-2.367 23.527Zm20.118-37.789h-9.789l-3.173 4.164c-3.254-3.123-7.795-5.621-15.953-5.621-13.256 0-20.62 8.328-22.548 27.483-1.927 19.155 3.761 27.483 17.017 27.483 8.158 0 13.235.208 17.118-2.915l2.301 1.457h9.789l5.238-52.05ZM591.543 148.555h16.282l5.259-52.05h-16.282l-5.259 52.05Zm5.249-67.146c-.568 5.622 3.199 9.89 8.729 9.89 5.427 0 10.159-4.268 10.727-9.89.558-5.517-3.301-9.89-8.729-9.89-5.529 0-10.17 4.373-10.727 9.89ZM645.876 149.992c24.074 0 32.177-16.657 34.577-40.496 2.4-23.84-2.35-40.496-26.424-40.496-24.074 0-32.177 16.656-34.577 40.496-2.399 23.839 2.351 40.496 26.424 40.496Zm6.634-65.897c10.098 0 13.252 7.183 11.418 25.401-1.834 18.218-6.433 25.401-16.532 25.401s-13.252-7.183-11.418-25.401c1.833-18.218 6.433-25.401 16.532-25.401ZM713.548 101.064c-7.844-1.146-10.625-2.915-10.059-8.537.503-4.997 5.469-7.703 13.939-7.703 7.755 0 16.014 2.082 19.988 4.164l1.625-16.136C735.669 70.874 728.205 69 717.797 69c-20.204 0-29.617 9.37-31.043 23.527-1.541 15.303 5.321 21.133 24.447 23.736 7.65 1.041 10.002 3.019 9.404 8.952-.534 5.31-4.268 8.953-15.799 8.953-10.102 0-18.275-3.956-21.637-6.038l-1.719 17.073c5.175 3.331 15.13 4.789 23.395 4.789 18.061 0 30.702-6.975 32.652-26.338 1.677-16.657-7.252-20.196-23.949-22.59Z" fill="#fff"/></g><defs><clipPath id="a"><path fill="#fff" d="M0 0h1191v324H0z"/></clipPath><filter id="b" x="-27.762" y="10.158" width="328.503" height="241.513" filterUnits="userSpaceOnUse" color-interpolation-filters="sRGB"><feFlood flood-opacity="0" result="BackgroundImageFix"/><feColorMatrix in="SourceAlpha" values="0 0 0 0 0 0 0 0 0 0 0 0 0 0 0 0 0 0 127 0"/><feOffset dy="2.767"/><feGaussianBlur stdDeviation="1.107"/><feColorMatrix values="0 0 0 0 0 0 0 0 0 0 0 0 0 0 0 0 0 0 0.0272236 0"/><feBlend in2="BackgroundImageFix" result="effect1_dropShadow"/><feColorMatrix in="SourceAlpha" values="0 0 0 0 0 0 0 0 0 0 0 0 0 0 0 0 0 0 127 0"/><feOffset dy="6.65"/><feGaussianBlur stdDeviation="2.66"/><feColorMatrix values="0 0 0 0 0 0 0 0 0 0 0 0 0 0 0 0 0 0 0.0395987 0"/><feBlend in2="effect1_dropShadow" result="effect2_dropShadow"/><feColorMatrix in="SourceAlpha" values="0 0 0 0 0 0 0 0 0 0 0 0 0 0 0 0 0 0 127 0"/><feOffset dy="12.522"/><feGaussianBlur stdDeviation="5.009"/><feColorMatrix values="0 0 0 0 0 0 0 0 0 0 0 0 0 0 0 0 0 0 0.0493241 0"/><feBlend in2="effect2_dropShadow" result="effect3_dropShadow"/><feColorMatrix in="SourceAlpha" values="0 0 0 0 0 0 0 0 0 0 0 0 0 0 0 0 0 0 127 0"/><feOffset dy="22.336"/><feGaussianBlur stdDeviation="8.935"/><feColorMatrix values="0 0 0 0 0 0 0 0 0 0 0 0 0 0 0 0 0 0 0.0588507 0"/><feBlend in2="effect3_dropShadow" result="effect4_dropShadow"/><feColorMatrix in="SourceAlpha" values="0 0 0 0 0 0 0 0 0 0 0 0 0 0 0 0 0 0 127 0"/><feOffset dy="41.778"/><feGaussianBlur stdDeviation="16.711"/><feColorMatrix values="0 0 0 0 0 0 0 0 0 0 0 0 0 0 0 0 0 0 0.0703296 0"/><feBlend in2="effect4_dropShadow" result="effect5_dropShadow"/><feColorMatrix in="SourceAlpha" values="0 0 0 0 0 0 0 0 0 0 0 0 0 0 0 0 0 0 127 0"/><feOffset dy="100"/><feGaussianBlur stdDeviation="40"/><feColorMatrix values="0 0 0 0 0 0 0 0 0 0 0 0 0 0 0 0 0 0 0.09 0"/><feBlend in2="effect5_dropShadow" result="effect6_dropShadow"/><feBlend in="SourceGraphic" in2="effect6_dropShadow" result="shape"/></filter></defs></svg>
